X: 498
T: KILLARNEY
B: O'Neill's 498
Z: 1999 by John Chambers <jc@trillian.mit.edu>
N: "Slow"
N: Collected by "(Balfe)"
M: C
L: 1/8
K:G
| (d3B) (A2(3GED) | G2G2 G3z | (d3{ed}c) (B2(3ABd) | e2A2 A3z |
| (d3B) (A2(3GED) | G2G2 G3z | (B3c) (d2Gc) | (B2A2) G3z ||
|| G2G2 A2E2 | G2G2 (Bd3) | B2(Bc) (dBAG) | (GE)(EG) A3z |
| ">"e2">"A2 ">"d2">"G2 | ">"c2">"F2 ">"B2">"G2 | ">"(F3G) A2 ((3Bcd) | F2E2 D4 |
| (G3E) D2 (EF) | G2G2 A3z | c3c B2A2 | dBAG E4 |
| (E3_E) (D3E) | G2 (3GBd e4 | G3A BHg2B | A4 G3z |]


